src/assets/create-campaign.svg

<svg fill="none" height="24" viewBox="0 0 24 24" width="24" xmlns="http://www.w3.org/2000/svg" xmlns:xlink="http://www.w3.org/1999/xlink"><clipPath id="a"><path d="m0 0h24v24h-24z"/></clipPath><g clip-path="url(#a)"><path d="m17 0c-.2652 0-.5196.105357-.7071.292893-.1875.187537-.2929.441891-.2929.707107 0 2.949-2.583 4-5 4h-7c-1.06087 0-2.07828.42143-2.82843 1.17157-.750143.75015-1.17157 1.76756-1.17157 2.82843v2c.00218416.5987.139462 1.1893.401603 1.7276.26214.5383.642387 1.0105 1.112397 1.3814l3.572 7.972c.25404.5711.66817 1.0563 1.19227 1.3969s1.13569.5219 1.76073.5221c.49731-.0003.98665-.125 1.42347-.3627s.80723-.5809 1.07753-.9983c.2704-.4175.432-.8959.4703-1.3917.0382-.4958-.0482-.9934-.2513-1.4473l-2.2-4.8h2.441c2.417 0 5 1.051 5 4 0 .2652.1054.5196.2929.7071s.4419.2929.7071.2929.5196-.1054.7071-.2929.2929-.4419.2929-.7071v-18c0-.265216-.1054-.51957-.2929-.707107-.1875-.187536-.4419-.292893-.7071-.292893zm-8.063 20.619c.06624.1496.09409.3133.08104.4764-.01304.1631-.06659.3203-.15577.4575-.08918.1371-.21118.2498-.35494.3279s-.30474.1191-.46833.1192c-.23861-.0002-.47203-.0696-.67191-.1999-.19989-.1303-.35764-.3159-.45409-.5341l-2.808-6.266h2.254zm7.063-6.019c-1.4287-1.1008-3.1976-1.6669-5-1.6h-7c-.53043 0-1.03914-.2107-1.41421-.5858-.37508-.3751-.58579-.8838-.58579-1.4142v-2c0-.53043.21071-1.03914.58579-1.41421.37507-.37508.88378-.58579 1.41421-.58579h7c1.8018.0683 3.5706-.49597 5-1.595zm7.9.852c-.0587.1176-.1399.2224-.2391.3086-.0992.0861-.2144.1519-.3391.1935-.1246.0416-.2562.0582-.3873.049-.131-.0093-.259-.0443-.3765-.1031l-2-1c-.2374-.1186-.4179-.3265-.5019-.5782-.0841-.2517-.0646-.5264.0539-.7638.1186-.2374.3265-.4179.5782-.5019.2517-.0841.5264-.0647.7638.0539l2 1c.2361.1185.4158.3256.4998.5761.0839.2505.0653.5241-.0518.7609zm-3.79-9c-.0588-.11752-.0938-.24547-.1031-.37654-.0092-.13106.0074-.26267.049-.3873s.1074-.23984.1935-.33904c.0862-.09921.191-.18046.3086-.23912l2-1c.2374-.11855.5121-.13795.7638-.05394.2517.08402.4597.26457.5782.50194.1186.23737.138.51211.0539.76378-.084.25168-.2645.45967-.5019.57822l-2 1c-.1175.05876-.2455.09378-.3765.10306-.1311.00928-.2627-.00735-.3873-.04896-.1247-.0416-.2399-.10736-.3391-.19352-.0992-.08615-.1804-.19101-.2391-.30858zm-.11 3.548c0-.26522.1054-.51957.2929-.70711.1875-.18753.4419-.29289.7071-.29289h2c.2652 0 .5196.10536.7071.29289.1875.18754.2929.44189.2929.70711 0 .2652-.1054.5196-.2929.7071s-.4419.2929-.7071.2929h-2c-.2652 0-.5196-.1054-.7071-.2929s-.2929-.4419-.2929-.7071z" fill="#1dc071"/></g></svg>

<svg width="24" height="24" viewBox="0 0 24 24" fill="none" xmlns="http://www.w3.org/2000/svg">
<g clip-path="url(#clip0_1071_25627)">
<path d="M17 0C16.7348 0 16.4804 0.105357 16.2929 0.292893C16.1054 0.48043 16 0.734784 16 1C16 3.949 13.417 5 11 5H4C2.93913 5 1.92172 5.42143 1.17157 6.17157C0.421427 6.92172 0 7.93913 0 9L0 11C0.00218416 11.5987 0.139462 12.1893 0.401603 12.7276C0.663743 13.2659 1.04399 13.7381 1.514 14.109L5.086 22.081C5.34004 22.6521 5.75417 23.1373 6.27827 23.4779C6.80237 23.8185 7.41396 23.9998 8.039 24C8.53631 23.9997 9.02565 23.875 9.46247 23.6373C9.89929 23.3996 10.2697 23.0564 10.54 22.639C10.8104 22.2215 10.972 21.7431 11.0103 21.2473C11.0485 20.7515 10.9621 20.2539 10.759 19.8L8.559 15H11C13.417 15 16 16.051 16 19C16 19.2652 16.1054 19.5196 16.2929 19.7071C16.4804 19.8946 16.7348 20 17 20C17.2652 20 17.5196 19.8946 17.7071 19.7071C17.8946 19.5196 18 19.2652 18 19V1C18 0.734784 17.8946 0.48043 17.7071 0.292893C17.5196 0.105357 17.2652 0 17 0V0ZM8.937 20.619C9.00324 20.7686 9.03109 20.9323 9.01804 21.0954C9.005 21.2585 8.95145 21.4157 8.86227 21.5529C8.77309 21.69 8.65109 21.8027 8.50733 21.8808C8.36357 21.9589 8.20259 21.9999 8.039 22C7.80039 21.9998 7.56697 21.9304 7.36709 21.8001C7.1672 21.6698 7.00945 21.4842 6.913 21.266L4.105 15H6.359L8.937 20.619ZM16 14.6C14.5713 13.4992 12.8024 12.9331 11 13H4C3.46957 13 2.96086 12.7893 2.58579 12.4142C2.21071 12.0391 2 11.5304 2 11V9C2 8.46957 2.21071 7.96086 2.58579 7.58579C2.96086 7.21071 3.46957 7 4 7H11C12.8018 7.0683 14.5706 6.50403 16 5.405V14.6ZM23.9 15.452C23.8413 15.5696 23.7601 15.6744 23.6609 15.7606C23.5617 15.8467 23.4465 15.9125 23.3218 15.9541C23.1972 15.9957 23.0656 16.0123 22.9345 16.0031C22.8035 15.9938 22.6755 15.9588 22.558 15.9L20.558 14.9C20.3206 14.7814 20.1401 14.5735 20.0561 14.3218C19.972 14.0701 19.9915 13.7954 20.11 13.558C20.2286 13.3206 20.4365 13.1401 20.6882 13.0561C20.9399 12.972 21.2146 12.9914 21.452 13.11L23.452 14.11C23.6881 14.2285 23.8678 14.4356 23.9518 14.6861C24.0357 14.9366 24.0171 15.2102 23.9 15.447V15.452ZM20.11 6.452C20.0512 6.33448 20.0162 6.20653 20.0069 6.07546C19.9977 5.9444 20.0143 5.81279 20.0559 5.68816C20.0975 5.56353 20.1633 5.44832 20.2494 5.34912C20.3356 5.24991 20.4404 5.16866 20.558 5.11L22.558 4.11C22.7954 3.99145 23.0701 3.97205 23.3218 4.05606C23.5735 4.14008 23.7815 4.32063 23.9 4.558C24.0186 4.79537 24.038 5.07011 23.9539 5.32178C23.8699 5.57346 23.6894 5.78145 23.452 5.9L21.452 6.9C21.3345 6.95876 21.2065 6.99378 21.0755 7.00306C20.9444 7.01234 20.8128 6.99571 20.6882 6.9541C20.5635 6.9125 20.4483 6.84674 20.3491 6.76058C20.2499 6.67443 20.1687 6.56957 20.11 6.452V6.452ZM20 10C20 9.73478 20.1054 9.48043 20.2929 9.29289C20.4804 9.10536 20.7348 9 21 9H23C23.2652 9 23.5196 9.10536 23.7071 9.29289C23.8946 9.48043 24 9.73478 24 10C24 10.2652 23.8946 10.5196 23.7071 10.7071C23.5196 10.8946 23.2652 11 23 11H21C20.7348 11 20.4804 10.8946 20.2929 10.7071C20.1054 10.5196 20 10.2652 20 10Z" fill="#1DC071"/>
</g>
<defs>
<clipPath id="clip0_1071_25627">
<rect width="24" height="24" fill="white"/>
</clipPath>
</defs>
</svg>
